kora/actions/scalable/standard-connector.svg

<svg xmlns="http://www.w3.org/2000/svg" style="fill-rule:evenodd;clip-rule:evenodd;stroke-linejoin:round;stroke-miterlimit:2" width="100%" height="100%" version="1.1" viewBox="0 0 16 16" xml:space="preserve">
 <defs>
  <style id="current-color-scheme" type="text/css">
   .ColorScheme-Text { color:#dfdfdf; } .ColorScheme-Highlight { color:#4285f4; } .ColorScheme-NeutralText { color:#ff9800; } .ColorScheme-PositiveText { color:#4caf50; } .ColorScheme-NegativeText { color:#f44336; }
  </style>
 </defs>
 <path style="fill:currentColor;" class="ColorScheme-Text" d="M3.5,1c-1.371,0 -2.5,1.129 -2.5,2.5c0,1.371 1.129,2.5 2.5,2.5c1.182,-0.002 2.209,-0.842 2.445,-2l2.055,0l-2.326,9l3.377,0c0.236,1.159 1.266,2 2.449,2c1.371,0 2.5,-1.129 2.5,-2.5c0,-1.371 -1.129,-2.5 -2.5,-2.5c-1.182,0.002 -2.209,0.842 -2.445,2l-2.148,0l2.354,-9l-3.312,0c-0.236,-1.159 -1.266,-2 -2.449,-2Z"/>
</svg>

<svg xmlns="http://www.w3.org/2000/svg" width="16" height="16" viewBox="0 0 16 16">
 <defs>
  <style id="current-color-scheme" type="text/css">
   .ColorScheme-Text { color:#dfdfdf; } .ColorScheme-Highlight { color:#4285f4; }
  </style>
 </defs>
 <path style="fill:currentColor" class="ColorScheme-Text" d="M 3.5 1 A 2.5 2.5 0 0 0 1 3.5 A 2.5 2.5 0 0 0 3.5 6 A 2.5 2.5 0 0 0 5.9453125 4 L 7 4 L 7 12 L 7 13 L 8.5 13 L 9.0507812 13 A 2.5 2.5 0 0 0 11.5 15 A 2.5 2.5 0 0 0 14 12.5 A 2.5 2.5 0 0 0 11.5 10 A 2.5 2.5 0 0 0 9.0546875 12 L 8 12 L 8 3 L 7.5 3 L 5.9492188 3 A 2.5 2.5 0 0 0 3.5 1 z"/>
</svg>
